client/src/assets/edit.svg

<svg width="14" height="14" viewBox="0 0 14 14" fill="none" xmlns="http://www.w3.org/2000/svg">
<path d="M12.9023 2.43101L11.569 1.09768C11.5381 1.06671 11.5013 1.04215 11.4609 1.02539C11.4204 1.00863 11.3771 1 11.3333 1C11.2896 1 11.2462 1.00863 11.2058 1.02539C11.1653 1.04215 11.1286 1.06671 11.0977 1.09768L7.09767 5.09767C7.0667 5.12861 7.04214 5.16535 7.02538 5.20579C7.00862 5.24623 7 5.28957 7 5.33334V6.66667C7 6.75508 7.03512 6.83986 7.09763 6.90238C7.16014 6.96489 7.24493 7.00001 7.33333 7.00001H8.66667C8.71044 7.00001 8.75378 6.99139 8.79422 6.97463C8.83466 6.95787 8.8714 6.93331 8.90233 6.90234L12.9023 2.90234C12.9333 2.87141 12.9579 2.83467 12.9746 2.79423C12.9914 2.75379 13 2.71045 13 2.66668C13 2.6229 12.9914 2.57956 12.9746 2.53912C12.9579 2.49869 12.9333 2.46195 12.9023 2.43101ZM8.52863 6.33334H7.66667V5.47137L11.3333 1.80471L12.1953 2.66668L8.52863 6.33334Z" fill="#6F8BA4" stroke="#6F8BA4" stroke-width="0.3"/>
<path d="M11.6765 6.33333C11.5907 6.33333 11.5084 6.36845 11.4477 6.43096C11.387 6.49348 11.3529 6.57826 11.3529 6.66667V11.6667C11.3528 11.8434 11.2845 12.0129 11.1632 12.1379C11.0419 12.2629 10.8774 12.3332 10.7059 12.3333H2.29412C2.12256 12.3332 1.95808 12.2629 1.83677 12.1379C1.71546 12.0129 1.64723 11.8434 1.64706 11.6667V4.33333C1.64723 4.15658 1.71546 3.98711 1.83677 3.86212C1.95808 3.73714 2.12256 3.66684 2.29412 3.66667H5.85294C5.93875 3.66667 6.02104 3.63155 6.08171 3.56904C6.14239 3.50652 6.17647 3.42174 6.17647 3.33333C6.17647 3.24493 6.14239 3.16014 6.08171 3.09763C6.02104 3.03512 5.93875 3 5.85294 3H2.29412C1.95101 3.0004 1.62207 3.141 1.37946 3.39096C1.13685 3.64093 1.00039 3.97983 1 4.33333V11.6667C1.00039 12.0202 1.13685 12.3591 1.37946 12.609C1.62207 12.859 1.95101 12.9996 2.29412 13H10.7059C11.049 12.9996 11.3779 12.859 11.6205 12.609C11.8631 12.3591 11.9996 12.0202 12 11.6667V6.66667C12 6.57826 11.9659 6.49348 11.9052 6.43096C11.8446 6.36845 11.7623 6.33333 11.6765 6.33333Z" fill="#6F8BA4" stroke="#6F8BA4" stroke-width="0.3"/>
</svg>

<svg width="14" height="14" fill="none" xmlns="http://www.w3.org/2000/svg"><path d="M12.902 2.431L11.57 1.098a.333.333 0 00-.471 0l-4 4A.333.333 0 007 5.333v1.334A.333.333 0 007.333 7h1.334a.333.333 0 00.235-.098l4-4a.332.332 0 000-.471zM8.53 6.333h-.862v-.862l3.666-3.666.862.862L8.53 6.333z" fill="#6F8BA4" stroke="#6F8BA4" stroke-width=".3"/><path d="M11.677 6.333a.319.319 0 00-.23.098.338.338 0 00-.094.236v5a.678.678 0 01-.19.47.638.638 0 01-.457.196H2.294a.638.638 0 01-.457-.195.678.678 0 01-.19-.471V4.333c0-.176.068-.346.19-.47a.638.638 0 01.457-.196h3.559a.319.319 0 00.229-.098.339.339 0 000-.471.319.319 0 00-.23-.098H2.295c-.343 0-.672.141-.915.391-.242.25-.379.589-.379.942v7.334c0 .353.137.692.38.942.242.25.571.39.914.391h8.412c.343 0 .672-.141.915-.391.242-.25.379-.589.379-.942v-5a.338.338 0 00-.095-.236.319.319 0 00-.228-.098z" fill="#6F8BA4" stroke="#6F8BA4" stroke-width=".3"/></svg>
